X: 45
M: 2/4
L: 1/16
K: A
V: 1
|:\
a4 e4 | {d}c2Bc A2E2 | F2E2F2G2 | AGAB A2A2 |\
a4 e4 | {d}c2Bc A2E2 | F2E2F2G2 | {G}A4 z2 :|
|: e2 |\
(fd).A.d (fd).A.d | (ec).A.c (ec).A.c | (de).c.d (Bc).A.B | (GA).B.G E2e2 |\
(fd).A.d (fd).A.d | (ec).A.c (ec).A.c | (dc).B.A (GA).B.G | (AE).C.E A,4 :|
|:\
(CE).A.E (CE).A.E | (DF).A.F (DF).A.F | (EG).B.c (dc).B.A | (GA).B.G E2E2 |\
(CE).A.E (CE).A.E | (DF).A.F (DF).A.F | (EG).B.d (cB).A.G | (AE).C.E A,4 :|
V: 2 clef=bass middle=d
|:\
z2A2c2e2 | a4 z2c'2 | d'2c'2d'2b2 | a4 A4 |
z2A2c2e2 | a4 z2c2 | d2c2d2e2 | a2e2A2 :||: c'2 |
d'4 d4 | c'4 c4 | b2a2g2f2 | e6 c'2 |
d'4 d4 | c'4 c4 | b2d'2e'2e2 | a4 A4 :||:


